packages/icons/src/report-icon.svg

<svg height="46" viewBox="0 0 46 46" width="46" xmlns="http://www.w3.org/2000/svg"><g fill="none" fill-rule="evenodd"><circle cx="23" cy="23" fill="#d4ecfc" r="23"/><path d="m27.7496837 17.1162572h-.2905209-.0549635c-.0209384 0-.0444942-.0025688-.0654326-.0025688-.0314077-.0077062-.0628154-.0128437-.0942231-.02055-.026173-.0077063-.1413345-.030825-.0680499-.02055.0078519 0 .0157038.0025687.0209384.0025687-.0104692-.0025687-.026173-.0077062-.0366423-.0128437-.026173-.0128438-.0497288-.0256876-.0759018-.0411001-.007852-.0051375-.0235558-.0154125-.0392596-.0256876-.0052346-.0077062-.0706673-.0590813-.0837538-.0693563-.0052346-.0051375-.0287904-.0256876-.0497288-.0462376-.0026174-.0051375-.0052347-.010275-.0104693-.0154125-.0026173-.0051375-.0052346-.010275-.0078519-.0154125-.0104692-.0128438-.0183211-.0282563-.0287904-.0411001-.0052346-.0077063-.026173-.0411001-.0418769-.0693564-.0026173-.0051375-.0052346-.0128438-.0078519-.0231188-.0026173-.0128437-.0078519-.0231188-.0130865-.0359625-.0026173-.0051375-.0026173-.0077063-.0052346-.0128438-.0104692-.030825 0-.0616501-.0261731-.0924751v-.0333939c-.0026173-.0128437-.0052346-.02055-.0052346-.0256875 0 .0025688.0026173.0128438.0052346.02055 0-.0179812-.0026173-.0333938-.0026173-.0436688 0-.0436688 0-.0847689.0026173-.1284377v-.0385313-2.5225166c0-.3467819.0052346-.6935637.0078519-1.0403455.4056825.3981569.8087477.7937451 1.2144301 1.191902 1.0730956 1.0531892 2.1488084 2.1089472 3.221904 3.1621364zm1.3008012 13.3832094h-12.1024239c-.2931383 0-.5103747-.2363254-.5234612-.5137508-.0130866-.2774255.2486441-.5137509.5234612-.5137509h.8165995v-4.7984328c0-.1412815-.0183211-.313388.0497289-.4443945.162273-.3159568.5627208-.2543067.8610937-.2543067h1.1071205c.1125442 0 .2277057.0025688.3402498.0051375.0130866 0 .0287904 0 .0418769.0025688.007852 0 .0157039.0025687.0235558.0025687s.0157038.0025688.0235558.0025688c.0052346 0 .0104692.0025688.0157038.0025688.0130865.0025687.0261731.0051375.0392596.010275h.0026173c.0183211.0051375.0366423.0128437.0549634.02055.1308653.0565126.2224711.166969.2617306.313388.007852.0231188.0209385.0513751.0235558.0796314 0 .0051375.0026173.0077063.0026173.010275v.0025688c0 .0077062 0 .0154125.0026173.0256875 0 .0025688-.0026173.0051375-.0026173.0077063v5.0090707h1.0730956v-.0282563c0-.0436688.0052346-.0899064.0052346-.1335752 0-.0462376.0026173-.0924752.0026173-.1387128.0026173-.1387127.0078519-.2774254.0104692-.4135694 0-.0385313.0026173-.0796314.0026173-.1181627 0-.0333938 0-.0642188.0026173-.0976126v-.0282563-.0308251-.030825-.0179813-.0462376-.0462376-6.7378423c0-.0642188-.0052346-.1258689-.0052346-.1900878 0-.0231188.0026173-.0488063.0052346-.0719251.0026173-.0154125.0052346-.0282563.0078519-.0411001.0052346-.0179812.0104693-.0359625.0157039-.0539438.0026173-.0051375.0052346-.0128438.0078519-.0179813s.0052346-.010275.0078519-.0154125c.0078519-.0154125.0157038-.0308251.0235558-.0462376.0026173-.0025687.0026173-.0077062.0052346-.010275.0052346-.0077063.0104692-.0179813.0183211-.0256875.0706673-.0976127.1805941-.1644003.3166941-.1823816.0130865-.0025687.0287903-.0025687.0444942-.0051375.0471115-.0025687.0968403-.0051375.1439518-.0051375h.034025c.2643479-.0051375.5286958.0025688.7930438.0077063h.0863711.0994576.6543266c.0392596 0 .0759018-.0051375.1151614-.0025688.0497289.0025688.0968404.010275.1387173.0256876.0026173 0 .0078519.0025687.0104692.0025687.034025.010275.0628153.0256875.0916057.0436688.0104692.0077063.0209385.0128438.0287904.0205501.0104692.0077062.0183211.0154125.0287903.0231187.0052347.0051376.007852.0077063.0130866.0128438s.0078519.0077063.0130865.0128438c.0157038.0179813.0314077.0359625.0444942.0565126.0026173.0051375.0078519.010275.0104692.0154125.0104693.0154125.0183212.0308251.0261731.0488063.0026173.0051375.0052346.0102751.0078519.0179813.0104692.0231188.0183212.0462376.0235558.0719251.0026173.0077063.0052346.0179813.0078519.0256876.0026173.0051375.0026173.0128437.0052346.0179813.0026173.0154125.0052346.030825.0052346.0488063v.0333938 8.0530444h1.1097379c0-.3288005.0157038-.657601.0157038-.9864016v-5.7154781c0-.0642188-.0052346-.125869.0130865-.1900878.0706673-.2517379.2983729-.3262318.5339305-.3262318h1.7614471c.1570383 0 .2931383.0462376.3873613.1387127.0130865.0128438.0261731.0282563.0392596.0436689.0183211.0231187.034025.0488063.0471115.0770626s.0235557.0590813.034025.0899064c.0078519.02055.0104692.0411.0130865.0642188v.0256876.0333938 6.7455485h.5548689c.2931383 0 .5103747.2363254.5234613.5137509.0130865.2774254-.2486441.5137508-.520844.5137508zm3.9468978-13.1083527c.0078519-.0513751-.0052346-.1078877-.0392596-.1592628-.0026173-.0025687-.0052346-.0077062-.0078519-.010275-.0026173-.0025687-.0052346-.0077063-.0078519-.010275-.0026173-.0025688-.0052346-.0077063-.007852-.010275-.0026173-.0025688-.0052346-.0051375-.0078519-.0077063 0 0 0-.0025687-.0026173-.0025687-.256496-.251738-.512992-.5034759-.7668707-.752645-.5915112-.5831072-1.1856397-1.1636457-1.7771509-1.7441841-.6674131-.6550324-1.3322089-1.3074959-1.9970047-1.9625282-.4763497-.4675133-.9526994-.9350266-1.4290491-1.4025398-.0837538-.0822002-.1648903-.1695378-.2538787-.2491692-.102075-.0924752-.2146192-.0770626-.3376325-.0770626h-11.3460225c-.4397074 0-.8820322-.0385313-1.28248.1798128-.4554113.2517379-.7276111.7320949-.7328458 1.2407082v.1900879 20.8428716c0 .0436688-.0026173.0847689 0 .1284377.007852.7064074.5443997 1.3074959 1.2589243 1.3974023.2407922.0308251.4920536.0128438.7354631.0128438h16.0728774c.3036075 0 .6386227.0282563.9291437-.0667876.5941285-.1926566.9945764-.7346637 1.0024283-1.348596v-.2055003-15.9827887z" fill="#25a6f7"/></g></svg>

<?xml version="1.0" encoding="UTF-8"?>
<svg width="46px" height="46px" viewBox="0 0 46 46" version="1.1" xmlns="http://www.w3.org/2000/svg" xmlns:xlink="http://www.w3.org/1999/xlink">
    <title>Report icon</title>
    <g id="Communication" stroke="none" stroke-width="1" fill="none" fill-rule="evenodd">
        <g id="User-Access---Cost-Report-Communication-Settings" transform="translate(-123.000000, -158.000000)">
            <g id="Report-icon" transform="translate(123.000000, 158.000000)">
                <circle id="Oval" fill="#D4ECFC" cx="23" cy="23" r="23"></circle>
                <path d="M27.7496837,17.1162572 L27.4591628,17.1162572 L27.4041993,17.1162572 C27.3832609,17.1162572 27.3597051,17.1136884 27.3387667,17.1136884 C27.307359,17.1059822 27.2759513,17.1008447 27.2445436,17.0931384 C27.2183706,17.0854321 27.1032091,17.0623134 27.1764937,17.0725884 C27.1843456,17.0725884 27.1921975,17.0751571 27.1974321,17.0751571 C27.1869629,17.0725884 27.1712591,17.0674509 27.1607898,17.0623134 C27.1346168,17.0494696 27.111061,17.0366258 27.084888,17.0212133 C27.077036,17.0160758 27.0613322,17.0058008 27.0456284,16.9955257 C27.0403938,16.9878195 26.9749611,16.9364444 26.9618746,16.9261694 C26.95664,16.9210319 26.9330842,16.9004818 26.9121458,16.8799318 C26.9095284,16.8747943 26.9069111,16.8696568 26.9016765,16.8645193 C26.8990592,16.8593818 26.8964419,16.8542443 26.8938246,16.8491068 C26.8833554,16.836263 26.8755035,16.8208505 26.8650342,16.8080067 C26.8597996,16.8003004 26.8388612,16.7669066 26.8231573,16.7386503 C26.82054,16.7335128 26.8179227,16.7258065 26.8153054,16.7155315 C26.8126881,16.7026878 26.8074535,16.6924127 26.8022189,16.679569 C26.7996016,16.6744315 26.7996016,16.6718627 26.7969843,16.6667252 C26.7865151,16.6359002 26.7969843,16.6050751 26.7708112,16.5742501 L26.7708112,16.5408562 C26.7681939,16.5280125 26.7655766,16.5203062 26.7655766,16.5151687 C26.7655766,16.5177375 26.7681939,16.5280125 26.7708112,16.5357187 C26.7708112,16.5177375 26.7681939,16.5023249 26.7681939,16.4920499 C26.7681939,16.4483811 26.7681939,16.407281 26.7708112,16.3636122 L26.7708112,16.3250809 L26.7708112,13.8025643 C26.7708112,13.4557824 26.7760458,13.1090006 26.7786631,12.7622188 C27.1843456,13.1603757 27.5874108,13.5559639 27.9930932,13.9541208 C29.0661888,15.00731 30.1419016,16.063068 31.2149972,17.1162572 L27.7496837,17.1162572 Z M29.0504849,30.4994666 L16.948061,30.4994666 C16.6549227,30.4994666 16.4376863,30.2631412 16.4245998,29.9857158 C16.4115132,29.7082903 16.6732439,29.4719649 16.948061,29.4719649 L17.7646605,29.4719649 L17.7646605,24.6735321 C17.7646605,24.5322506 17.7463394,24.3601441 17.8143894,24.2291376 C17.9766624,23.9131808 18.3771102,23.9748309 18.6754831,23.9748309 L19.7826036,23.9748309 C19.8951478,23.9748309 20.0103093,23.9773997 20.1228534,23.9799684 C20.13594,23.9799684 20.1516438,23.9799684 20.1647303,23.9825372 C20.1725823,23.9825372 20.1804342,23.9851059 20.1882861,23.9851059 C20.196138,23.9851059 20.2039899,23.9876747 20.2118419,23.9876747 C20.2170765,23.9876747 20.2223111,23.9902435 20.2275457,23.9902435 C20.2406322,23.9928122 20.2537188,23.995381 20.2668053,24.0005185 L20.2694226,24.0005185 C20.2877437,24.005656 20.3060649,24.0133622 20.324386,24.0210685 C20.4552513,24.0775811 20.5468571,24.1880375 20.5861166,24.3344565 C20.5939686,24.3575753 20.6070551,24.3858316 20.6096724,24.4140879 C20.6096724,24.4192254 20.6122897,24.4217942 20.6122897,24.4243629 L20.6122897,24.4269317 C20.6122897,24.4346379 20.6122897,24.4423442 20.614907,24.4526192 C20.614907,24.455188 20.6122897,24.4577567 20.6122897,24.4603255 L20.6122897,29.4693962 L21.6853853,29.4693962 L21.6853853,29.4411399 C21.6853853,29.3974711 21.6906199,29.3512335 21.6906199,29.3075647 C21.6906199,29.2613271 21.6932372,29.2150895 21.6932372,29.1688519 C21.6958545,29.0301392 21.7010891,28.8914265 21.7037064,28.7552825 C21.7037064,28.7167512 21.7063237,28.6756511 21.7063237,28.6371198 C21.7063237,28.603726 21.7063237,28.572901 21.708941,28.5395072 L21.708941,28.5112509 L21.708941,28.4804258 L21.708941,28.4496008 L21.708941,28.4316195 L21.708941,28.3853819 L21.708941,28.3391443 L21.708941,21.601302 C21.708941,21.5370832 21.7037064,21.4754331 21.7037064,21.4112142 C21.7037064,21.3880954 21.7063237,21.3624079 21.708941,21.3392891 C21.7115583,21.3238766 21.7141756,21.3110328 21.7167929,21.298189 C21.7220275,21.2802078 21.7272622,21.2622265 21.7324968,21.2442452 C21.7351141,21.2391077 21.7377314,21.2314014 21.7403487,21.2262639 C21.742966,21.2211264 21.7455833,21.2159889 21.7482006,21.2108514 C21.7560525,21.1954389 21.7639044,21.1800263 21.7717564,21.1646138 C21.7743737,21.1620451 21.7743737,21.1569076 21.776991,21.1543388 C21.7822256,21.1466325 21.7874602,21.1363575 21.7953121,21.1286513 C21.8659794,21.0310386 21.9759062,20.964251 22.1120062,20.9462697 C22.1250927,20.943701 22.1407965,20.943701 22.1565004,20.9411322 C22.2036119,20.9385635 22.2533407,20.9359947 22.3004522,20.9359947 L22.3344772,20.9359947 C22.5988251,20.9308572 22.863173,20.9385635 23.127521,20.943701 L23.2138921,20.943701 L23.3133497,20.943701 L23.9676763,20.943701 C24.0069359,20.943701 24.0435781,20.9385635 24.0828377,20.9411322 C24.1325666,20.943701 24.1796781,20.9514072 24.221555,20.9668198 C24.2241723,20.9668198 24.2294069,20.9693885 24.2320242,20.9693885 C24.2660492,20.9796635 24.2948395,20.995076 24.3236299,21.0130573 C24.3340991,21.0207636 24.3445684,21.0259011 24.3524203,21.0336074 C24.3628895,21.0413136 24.3707414,21.0490199 24.3812106,21.0567261 C24.3864453,21.0618637 24.3890626,21.0644324 24.3942972,21.0695699 C24.3995318,21.0747074 24.4021491,21.0772762 24.4073837,21.0824137 C24.4230875,21.100395 24.4387914,21.1183762 24.4518779,21.1389263 C24.4544952,21.1440638 24.4597298,21.1492013 24.4623471,21.1543388 C24.4728164,21.1697513 24.4806683,21.1851639 24.4885202,21.2031451 C24.4911375,21.2082826 24.4937548,21.2134202 24.4963721,21.2211264 C24.5068413,21.2442452 24.5146933,21.267364 24.5199279,21.2930515 C24.5225452,21.3007578 24.5251625,21.3110328 24.5277798,21.3187391 C24.5303971,21.3238766 24.5303971,21.3315828 24.5330144,21.3367204 C24.5356317,21.3521329 24.538249,21.3675454 24.538249,21.3855267 L24.538249,21.4189205 L24.538249,29.4719649 L25.6479869,29.4719649 C25.6479869,29.1431644 25.6636907,28.8143639 25.6636907,28.4855633 L25.6636907,22.7700852 C25.6636907,22.7058664 25.6584561,22.6442162 25.6767772,22.5799974 C25.7474445,22.3282595 25.9751501,22.2537656 26.2107077,22.2537656 L27.9721548,22.2537656 C28.1291931,22.2537656 28.2652931,22.3000032 28.3595161,22.3924783 C28.3726026,22.4053221 28.3856892,22.4207346 28.3987757,22.4361472 C28.4170968,22.4592659 28.4328007,22.4849535 28.4458872,22.5132098 C28.4589737,22.5414661 28.4694429,22.5722911 28.4799122,22.6031162 C28.4877641,22.6236662 28.4903814,22.6442162 28.4929987,22.667335 L28.4929987,22.6930226 L28.4929987,22.7264164 L28.4929987,29.4719649 L29.0478676,29.4719649 C29.3410059,29.4719649 29.5582423,29.7082903 29.5713289,29.9857158 C29.5844154,30.2631412 29.3226848,30.4994666 29.0504849,30.4994666 L29.0504849,30.4994666 Z M32.9973827,17.3911139 C33.0052346,17.3397388 32.9921481,17.2832262 32.9581231,17.2318511 C32.9555058,17.2292824 32.9528885,17.2241449 32.9502712,17.2215761 C32.9476539,17.2190074 32.9450366,17.2138698 32.9424193,17.2113011 C32.939802,17.2087323 32.9371847,17.2035948 32.9345673,17.2010261 C32.93195,17.1984573 32.9293327,17.1958886 32.9267154,17.1933198 C32.9267154,17.1933198 32.9267154,17.1907511 32.9240981,17.1907511 C32.6676021,16.9390131 32.4111061,16.6872752 32.1572274,16.4381061 C31.5657162,15.8549989 30.9715877,15.2744604 30.3800765,14.693922 C29.7126634,14.0388896 29.0478676,13.3864261 28.3830718,12.7313938 C27.9067221,12.2638805 27.4303724,11.7963672 26.9540227,11.328854 C26.8702689,11.2466538 26.7891324,11.1593162 26.700144,11.0796848 C26.598069,10.9872096 26.4855248,11.0026222 26.3625115,11.0026222 L15.016489,11.0026222 C14.5767816,11.0026222 14.1344568,10.9640909 13.734009,11.182435 C13.2785977,11.4341729 13.0063979,11.9145299 13.0011632,12.4231432 L13.0011632,12.6132311 L13.0011632,33.4561027 C13.0011632,33.4997715 12.9985459,33.5408716 13.0011632,33.5845404 C13.0090152,34.2909478 13.5455629,34.8920363 14.2600875,34.9819427 C14.5008797,35.0127678 14.7521411,34.9947865 14.9955506,34.9947865 L31.068428,34.9947865 C31.3720355,34.9947865 31.7070507,35.0230428 31.9975717,34.9279989 C32.5917002,34.7353423 32.9921481,34.1933352 33,33.5794029 L33,33.3739026 L33,17.3911139 L32.9973827,17.3911139 Z" id="Fill-1" fill="#25A6F7"></path>
            </g>
        </g>
    </g>
</svg>
